X:1
T:Praise My Soul, the Lord in Glory
T:Praise My Soul, the Lord in Glory
T:Alfred Steinmetz, 1859
T:Alfred Steinmetz, 1855
T:Public Domain Courtesy of the Cyber Hymnal™
C:Alfred Steinmetz, 1859
Z:Public Domain
Z:Courtesy of the Cyber Hymnal™
%%score 1 ( 2 3 )
L:1/8
Q:1/4=113
M:6/8
K:D
V:1 treble 
V:2 bass 
V:3 bass 
V:1
 [DF]2 [DG] [DA]2 [DF] | [Dd]2 [DB] [DA]2 [DF] | [B,G]2 [EG] [EF]2 [DF] | [CE]3- [CE]2 z | %4
w: 1.~Praise, my soul, the|Lord in glo- ry|For His bound- less|grace! *|
w: 2.~Christ has all my|sins for- giv- en,|Peace and light be-|stowed. *|
w: 3.~None can just- ly|now me cen- sure,|Christ me chose for|bride. *|
w: 4.~Now, my heart, be|full of glad- ness,|Sing with joy- ful|sound! *|
w: 5.~When our Bride- groom|comes from glo- ry|We no joy will|miss! *|
 [Ec]2 [CA] [Dd]2 [FA] | [Ge]2 [EG] [EG]2 [DF] | [DB]2 [GB] [FA]2 [Gc] | [Fd]3- [Fd]2 z | %8
w: For His Word, the|sac- red sto- ry,|That His love con-|veys! *|
w: He thro’ sin and|death was driv- en,|And made way to|God. *|
w: To His lov- ing|heart I ven- ture,|Hid- ing at His|side; *|
w: Let your cheer sub-|due all sad- ness;|May your joy a-|bound; *|
w: All the saved He’ll|give, as dow- ry,|His e- ter- nal|bliss; *|
 [DB]2 [DB] [DA]2 [A,C] | [A,D]3- [A,D]2 z |] %10
w: I its truth em-|brace. *|
w: He made way to|God. *|
w: At His lov- ing|side. *|
w: Let your joy re-|sound! *|
w: Yes, e- ter- nal|bliss! *|
V:2
 [D,A,]2 [E,A,] [F,A,]2 [D,A,] | [B,,G,]2 [G,,G,] [D,F,]2 [D,A,] | [E,G,]2 [C,A,] [D,A,]2 [F,A,] | %3
 A,3- A,2 z | [G,A,]2 [G,A,] [F,A,]2 [D,A,] | [C,A,]2 [C,A,] [D,A,]2 [D,A,] | %6
 [G,B,]2 [E,G,] A,2 A, | [D,A,]3- [D,A,]2 z | [G,,G,]2 [G,,G,] [A,,F,]2 [A,,G,] | %9
 [D,F,]3- [D,F,]2 z |] %10
V:3
 x6 | x6 | x6 | A,3- A,2 x | x6 | x6 | x3 A,2 A, | x6 | x6 | x6 |] %10

